packages/tokens/icons/carSignal/size16Px.svg

<svg viewBox="0 0 16 16" fill="none" xmlns="http://www.w3.org/2000/svg" width="1em" height="1em"><path d="M3.5 9.5L12.5 9.5L12.5 12.5C12.5 12.7761 12.2761 13 12 13L4 13C3.72386 13 3.5 12.7761 3.5 12.5L3.5 9.5Z" stroke="currentColor" stroke-linecap="round" stroke-linejoin="round"/><path d="M12.5 9.5L11.7279 7.18377C11.5918 6.77543 11.2097 6.5 10.7792 6.5L5.22076 6.5C4.79033 6.5 4.40819 6.77543 4.27208 7.18377L3.5 9.5" stroke="currentColor"/><rect x="3.25" y="11.25" width="2.5" height="0.5" rx="0.25" stroke="currentColor" stroke-width="0.5"/><rect x="10.25" y="11.25" width="2.5" height="0.5" rx="0.25" stroke="currentColor" stroke-width="0.5"/><path d="M13 10.5C13.2761 10.5 13.5 10.2761 13.5 10C13.5 9.72386 13.2761 9.5 13 9.5C12.7239 9.5 12.5 9.72386 12.5 10C12.5 10.2761 12.7239 10.5 13 10.5Z" stroke="currentColor"/><path d="M3 10.5C3.27614 10.5 3.5 10.2761 3.5 10C3.5 9.72386 3.27614 9.5 3 9.5C2.72386 9.5 2.5 9.72386 2.5 10C2.5 10.2761 2.72386 10.5 3 10.5Z" stroke="currentColor"/><path d="M10.5 13L10.5004 13H10.5028H10.5053H10.5077H10.5101H10.5125H10.515H10.5174H10.5198H10.5222H10.5245H10.5269H10.5293H10.5317H10.5341H10.5364H10.5388H10.5411H10.5435H10.5458H10.5481H10.5505H10.5528H10.5551H10.5574H10.5597H10.562H10.5643H10.5666H10.5689H10.5712H10.5735H10.5758H10.578H10.5803H10.5826H10.5848H10.5871H10.5893H10.5915H10.5938H10.596H10.5982H10.6004H10.6027H10.6049H10.6071H10.6093H10.6115H10.6136H10.6158H10.618H10.6202H10.6224H10.6245H10.6267H10.6289H10.631H10.6332H10.6353H10.6374H10.6396H10.6417H10.6438H10.646H10.6481H10.6502H10.6523H10.6544H10.6565H10.6586H10.6607H10.6628H10.6649H10.667H10.669H10.6711H10.6732H10.6752H10.6773H10.6794H10.6814H10.6835H10.6855H10.6875H10.6896H10.6916H10.6936H10.6957H10.6977H10.6997H10.7017H10.7037H10.7057H10.7077H10.7097H10.7117H10.7137H10.7157H10.7177H10.7197H10.7217H10.7236H10.7256H10.7276H10.7295H10.7315H10.7334H10.7354H10.7374H10.7393H10.7412H10.7432H10.7451H10.7471H10.749H10.7509H10.7528H10.7548H10.7567H10.7586H10.7605H10.7624H10.7643H10.7662H10.7681H10.77H10.7719H10.7738H10.7757H10.7776H10.7795H10.7813H10.7832H10.7851H10.787H10.7888H10.7907H10.7926H10.7944H10.7963H10.7981H10.8H10.8018H10.8037H10.8055H10.8074H10.8092H10.8111H10.8129H10.8147H10.8166H10.8184H10.8202H10.822H10.8239H10.8257H10.8275H10.8293H10.8311H10.8329H10.8347H10.8366H10.8384H10.8402H10.842H10.8438H10.8456H10.8473H10.8491H10.8509H10.8527H10.8545H10.8563H10.8581H10.8598H10.8616H10.8634H10.8652H10.867H10.8687H10.8705H10.8723H10.874H10.8758H10.8776H10.8793H10.8811H10.8828H10.8846H10.8863H10.8881H10.8899H10.8916H10.8934H10.8951H10.8969H10.8986H10.9003H10.9021H10.9038H10.9056H10.9073H10.909H10.9108H10.9125H10.9142H10.916H10.9177H10.9194H10.9212H10.9229H10.9246H10.9264H10.9281H10.9298H10.9315H10.9333H10.935H10.9367H10.9384H10.9401H10.9419H10.9436H10.9453H10.947H10.9487H10.9504H10.9522H10.9539H10.9556H10.9573H10.959H10.9607H10.9624H10.9641H10.9659H10.9676H10.9693H10.971H10.9727H10.9744H10.9761H10.9778H10.9795H10.9812H10.9829H10.9846H10.9864H10.9881H10.9898H10.9915H10.9932H10.9949H10.9966H10.9983H11H11.0017H11.0034H11.0051H11.0068H11.0085H11.0102H11.0119H11.0136H11.0154H11.0171H11.0188H11.0205H11.0222H11.0239H11.0256H11.0273H11.029H11.0307H11.0324H11.0341H11.0359H11.0376H11.0393H11.041H11.0427H11.0444H11.0461H11.0478H11.0496H11.0513H11.053H11.0547H11.0564H11.0581H11.0599H11.0616H11.0633H11.065H11.0667H11.0685H11.0702H11.0719H11.0736H11.0754H11.0771H11.0788H11.0806H11.0823H11.084H11.0858H11.0875H11.0892H11.091H11.0927H11.0944H11.0962H11.0979H11.0997H11.1014H11.1031H11.1049H11.1066H11.1084H11.1101H11.1119H11.1137H11.1154H11.1172H11.1189H11.1207H11.1224H11.1242H11.126H11.1277H11.1295H11.1313H11.133H11.1348H11.1366H11.1384H11.1402H11.1419H11.1437H11.1455H11.1473H11.1491H11.1509H11.1527H11.1544H11.1562H11.158H11.1598H11.1616H11.1634H11.1653H11.1671H11.1689H11.1707H11.1725H11.1743H11.1761H11.178H11.1798H11.1816H11.1834H11.1853H11.1871H11.1889H11.1908H11.1926H11.1945H11.1963H11.1982H11.2H11.2019H11.2037H11.2056H11.2074H11.2093H11.2112H11.213H11.2149H11.2168H11.2187H11.2205H11.2224H11.2243H11.2262H11.2281H11.23H11.2319H11.2338H11.2357H11.2376H11.2395H11.2414H11.2433H11.2452H11.2472H11.2491H11.251H11.2529H11.2549H11.2568H11.2588H11.2607H11.2626H11.2646H11.2666H11.2685H11.2705H11.2724H11.2744H11.2764H11.2783H11.2803H11.2823H11.2843H11.2863H11.2883H11.2903H11.2923H11.2943H11.2963H11.2983H11.3003H11.3023H11.3043H11.3064H11.3084H11.3104H11.3125H11.3145H11.3165H11.3186H11.3206H11.3227H11.3248H11.3268H11.3289H11.331H11.333H11.3351H11.3372H11.3393H11.3414H11.3435H11.3456H11.3477H11.3498H11.3519H11.354H11.3562H11.3583H11.3604H11.3626H11.3647H11.3668H11.369H11.3711H11.3733H11.3755H11.3776H11.3798H11.382H11.3842H11.3864H11.3885H11.3907H11.3929H11.3951H11.3973H11.3996H11.4018H11.404H11.4062H11.4085H11.4107H11.4129H11.4152H11.4174H11.4197H11.422H11.4242H11.4265H11.4288H11.4311H11.4334H11.4357H11.438H11.4403H11.4426H11.4449H11.4472H11.4495H11.4519H11.4542H11.4565H11.4589H11.4612H11.4636H11.4659H11.4683H11.4707H11.4731H11.4755H11.4778H11.4802H11.4826H11.485H11.4875H11.4899H11.4923H11.4947H11.4972H11.4996H11.5V15H10.5V13Z" stroke="currentColor" stroke-linejoin="round"/><path d="M4.5 13L4.5004 13H4.50284H4.50527H4.5077H4.51013H4.51255H4.51496H4.51736H4.51976H4.52216H4.52455H4.52693H4.52931H4.53169H4.53405H4.53642H4.53877H4.54112H4.54347H4.54581H4.54815H4.55048H4.5528H4.55512H4.55743H4.55974H4.56205H4.56435H4.56664H4.56893H4.57121H4.57349H4.57576H4.57803H4.58029H4.58255H4.5848H4.58705H4.58929H4.59153H4.59377H4.59599H4.59822H4.60044H4.60265H4.60486H4.60706H4.60926H4.61146H4.61365H4.61584H4.61802H4.62019H4.62236H4.62453H4.62669H4.62885H4.63101H4.63316H4.6353H4.63744H4.63958H4.64171H4.64384H4.64596H4.64808H4.65019H4.6523H4.65441H4.65651H4.6586H4.6607H4.66279H4.66487H4.66695H4.66903H4.6711H4.67317H4.67523H4.67729H4.67935H4.6814H4.68345H4.6855H4.68754H4.68957H4.69161H4.69364H4.69566H4.69768H4.6997H4.70171H4.70372H4.70573H4.70773H4.70973H4.71173H4.71372H4.71571H4.71769H4.71968H4.72165H4.72363H4.7256H4.72757H4.72953H4.73149H4.73345H4.7354H4.73735H4.7393H4.74124H4.74318H4.74512H4.74706H4.74899H4.75091H4.75284H4.75476H4.75668H4.75859H4.76051H4.76242H4.76432H4.76623H4.76813H4.77002H4.77192H4.77381H4.7757H4.77758H4.77947H4.78135H4.78322H4.7851H4.78697H4.78884H4.79071H4.79257H4.79443H4.79629H4.79815H4.8H4.80185H4.8037H4.80554H4.80739H4.80923H4.81106H4.8129H4.81473H4.81656H4.81839H4.82022H4.82204H4.82386H4.82568H4.8275H4.82932H4.83113H4.83294H4.83475H4.83655H4.83836H4.84016H4.84196H4.84376H4.84555H4.84735H4.84914H4.85093H4.85272H4.8545H4.85629H4.85807H4.85985H4.86163H4.8634H4.86518H4.86695H4.86872H4.87049H4.87226H4.87403H4.87579H4.87756H4.87932H4.88108H4.88284H4.88459H4.88635H4.8881H4.88986H4.89161H4.89336H4.8951H4.89685H4.8986H4.90034H4.90208H4.90383H4.90557H4.90731H4.90904H4.91078H4.91252H4.91425H4.91598H4.91771H4.91945H4.92118H4.9229H4.92463H4.92636H4.92809H4.92981H4.93153H4.93326H4.93498H4.9367H4.93842H4.94014H4.94186H4.94358H4.9453H4.94701H4.94873H4.95045H4.95216H4.95387H4.95559H4.9573H4.95901H4.96072H4.96244H4.96415H4.96586H4.96757H4.96928H4.97099H4.97269H4.9744H4.97611H4.97782H4.97953H4.98123H4.98294H4.98465H4.98635H4.98806H4.98977H4.99147H4.99318H4.99488H4.99659H4.99829H5H5.00171H5.00341H5.00512H5.00682H5.00853H5.01023H5.01194H5.01365H5.01535H5.01706H5.01877H5.02047H5.02218H5.02389H5.0256H5.02731H5.02901H5.03072H5.03243H5.03414H5.03585H5.03756H5.03928H5.04099H5.0427H5.04441H5.04613H5.04784H5.04955H5.05127H5.05299H5.0547H5.05642H5.05814H5.05986H5.06158H5.0633H5.06502H5.06674H5.06847H5.07019H5.07191H5.07364H5.07537H5.0771H5.07882H5.08055H5.08229H5.08402H5.08575H5.08748H5.08922H5.09096H5.09269H5.09443H5.09617H5.09792H5.09966H5.1014H5.10315H5.1049H5.10664H5.10839H5.11014H5.1119H5.11365H5.11541H5.11716H5.11892H5.12068H5.12244H5.12421H5.12597H5.12774H5.12951H5.13128H5.13305H5.13482H5.1366H5.13837H5.14015H5.14193H5.14371H5.1455H5.14728H5.14907H5.15086H5.15265H5.15445H5.15624H5.15804H5.15984H5.16164H5.16345H5.16525H5.16706H5.16887H5.17068H5.1725H5.17432H5.17614H5.17796H5.17978H5.18161H5.18344H5.18527H5.1871H5.18894H5.19077H5.19261H5.19446H5.1963H5.19815H5.2H5.20185H5.20371H5.20557H5.20743H5.20929H5.21116H5.21303H5.2149H5.21678H5.21865H5.22053H5.22242H5.2243H5.22619H5.22808H5.22998H5.23187H5.23377H5.23568H5.23758H5.23949H5.24141H5.24332H5.24524H5.24716H5.24909H5.25101H5.25294H5.25488H5.25682H5.25876H5.2607H5.26265H5.2646H5.26655H5.26851H5.27047H5.27243H5.2744H5.27637H5.27835H5.28033H5.28231H5.28429H5.28628H5.28827H5.29027H5.29227H5.29427H5.29628H5.29829H5.3003H5.30232H5.30434H5.30636H5.30839H5.31043H5.31246H5.3145H5.31655H5.3186H5.32065H5.32271H5.32477H5.32683H5.3289H5.33097H5.33305H5.33513H5.33721H5.3393H5.3414H5.34349H5.34559H5.3477H5.34981H5.35192H5.35404H5.35616H5.35829H5.36042H5.36256H5.3647H5.36684H5.36899H5.37115H5.37331H5.37547H5.37764H5.37981H5.38198H5.38416H5.38635H5.38854H5.39074H5.39294H5.39514H5.39735H5.39956H5.40178H5.40401H5.40623H5.40847H5.41071H5.41295H5.4152H5.41745H5.41971H5.42197H5.42424H5.42651H5.42879H5.43107H5.43336H5.43565H5.43795H5.44026H5.44257H5.44488H5.4472H5.44952H5.45185H5.45419H5.45653H5.45888H5.46123H5.46358H5.46595H5.46831H5.47069H5.47307H5.47545H5.47784H5.48024H5.48264H5.48504H5.48745H5.48987H5.4923H5.49472H5.49716H5.4996H5.5V15H4.5V13Z" stroke="currentColor" stroke-linejoin="round"/><path d="M4.5 3.21429C4.88889 2.52857 6.05556 1.5 8 1.5C9.94444 1.5 11.1111 2.52857 11.5 3.21429M5.66667 4.64286C6.05556 3.92857 7.02778 3.5 8 3.5C8.97222 3.5 9.94444 3.92857 10.3333 4.64286" stroke="currentColor" stroke-linecap="round" stroke-linejoin="round"/></svg>

<svg xmlns="http://www.w3.org/2000/svg" fill="none" viewBox="0 0 16 16" width="1em" height="1em"><path stroke="currentColor" stroke-linecap="round" stroke-linejoin="round" d="M3.5 9.5h9v3a.5.5 0 0 1-.5.5H4a.5.5 0 0 1-.5-.5v-3Z"/><path stroke="currentColor" d="m12.5 9.5-.772-2.316a1 1 0 0 0-.949-.684H5.221a1 1 0 0 0-.949.684L3.5 9.5"/><rect width="2.5" height=".5" x="3.25" y="11.25" stroke="currentColor" stroke-width=".5" rx=".25"/><rect width="2.5" height=".5" x="10.25" y="11.25" stroke="currentColor" stroke-width=".5" rx=".25"/><path stroke="currentColor" d="M13 10.5a.5.5 0 1 0 0-1 .5.5 0 0 0 0 1Zm-10 0a.5.5 0 1 0 0-1 .5.5 0 0 0 0 1Z"/><path stroke="currentColor" stroke-linejoin="round" d="M10.5 13h1v2h-1v-2Zm-6 0h1v2h-1v-2Z"/><path stroke="currentColor" stroke-linecap="round" stroke-linejoin="round" d="M4.5 3.214C4.889 2.53 6.056 1.5 8 1.5s3.111 1.029 3.5 1.714M5.667 4.643C6.056 3.929 7.027 3.5 8 3.5c.972 0 1.944.429 2.333 1.143"/></svg>
